WPMap/assets/css/svg/icon_money_percent.svg

<svg width="67" height="43" viewBox="0 0 67 43" fill="none" xmlns="http://www.w3.org/2000/svg">
<path d="M0 38.3732C0 40.8612 8.97146 43 20.038 43C23.9558 43 27.6266 42.7319 30.7342 42.2752C28.9632 40.5119 27.4585 38.4874 26.2846 36.2655C24.3148 36.4099 22.2145 36.4879 20.038 36.4879C8.97146 36.4879 0 34.4703 0 31.9823V38.3732Z" fill="black"/>
<path d="M24.4825 31.869C23.0509 31.9416 21.5632 31.9799 20.038 31.9799C8.97146 31.9799 0 29.9635 0 27.4756V21.0835C0 23.5715 8.97146 25.5891 20.038 25.5891C21.2034 25.5891 22.3469 25.5667 23.4603 25.5237C23.5234 27.7224 23.8762 29.8495 24.4825 31.869Z" fill="black"/>
<path d="M23.6985 21.3052C22.5102 21.3543 21.2867 21.38 20.038 21.38C8.97146 21.38 0 19.3636 0 16.8756V10.4848C0 12.9728 8.97146 14.9891 20.038 14.9891C21.9538 14.9891 23.8105 14.9287 25.5712 14.8158C24.6634 16.8503 24.0244 19.0281 23.6985 21.3052Z" fill="black"/>
<path d="M28.3257 10.1189C25.7927 10.4208 22.9852 10.5889 20.038 10.5889C8.97146 10.5889 0 8.21853 0 5.29446C0 2.37038 8.97146 0 20.038 0C27.3746 0 33.8449 1.04179 37.373 2.59605C33.784 4.36406 30.6837 6.95514 28.3257 10.1189Z" fill="black"/>
<path fill-rule="evenodd" clip-rule="evenodd" d="M48.575 43C58.7508 43 67 34.855 67 24.8077C67 14.7604 58.7508 6.61538 48.575 6.61538C38.3992 6.61538 30.15 14.7604 30.15 24.8077C30.15 34.855 38.3992 43 48.575 43ZM41.4145 34.3522L52.5275 13.2308L55.7355 15.2632L44.6226 36.3846L41.4145 34.3522ZM42.4071 16.2064C44.1788 17.3289 44.7859 19.8149 43.763 21.7591C42.74 23.7032 40.4745 24.3694 38.7028 23.2469C36.931 22.1244 36.324 19.6384 37.3469 17.6942C38.3698 15.7501 40.6353 15.0839 42.4071 16.2064ZM59.8031 31.9211C60.826 29.9769 60.219 27.4909 58.4472 26.3685C56.6755 25.246 54.41 25.9121 53.387 27.8563C52.3641 29.8005 52.9712 32.2865 54.7429 33.4089C56.5147 34.5314 58.7802 33.8653 59.8031 31.9211Z" fill="black"/>
</svg>

<svg xmlns="http://www.w3.org/2000/svg" width="67" height="43" fill="none"><path fill="#000" d="M0 38.373C0 40.861 8.971 43 20.038 43c3.918 0 7.589-.268 10.696-.725a24.9 24.9 0 0 1-4.45-6.01c-1.97.145-4.07.223-6.246.223C8.971 36.488 0 34.47 0 31.982v6.391ZM24.483 31.869c-1.432.073-2.92.11-4.445.11C8.971 31.98 0 29.965 0 27.477v-6.392c0 2.488 8.971 4.505 20.038 4.505 1.165 0 2.309-.022 3.422-.065a24.483 24.483 0 0 0 1.023 6.345ZM23.698 21.305c-1.188.05-2.411.075-3.66.075C8.971 21.38 0 19.364 0 16.876v-6.391c0 2.488 8.971 4.504 20.038 4.504 1.916 0 3.773-.06 5.533-.173a24.394 24.394 0 0 0-1.873 6.49ZM28.326 10.119c-2.533.302-5.34.47-8.288.47C8.971 10.589 0 8.219 0 5.294 0 2.37 8.971 0 20.038 0c7.337 0 13.807 1.042 17.335 2.596a25.156 25.156 0 0 0-9.047 7.523Z"/><path fill="#000" fill-rule="evenodd" d="M48.575 43C58.751 43 67 34.855 67 24.808 67 14.76 58.75 6.615 48.575 6.615c-10.176 0-18.425 8.145-18.425 18.193C30.15 34.855 38.4 43 48.575 43Zm-7.16-8.648 11.113-21.121 3.208 2.032-11.113 21.122-3.209-2.033Zm.992-18.146c1.772 1.123 2.379 3.609 1.356 5.553s-3.288 2.61-5.06 1.488c-1.772-1.123-2.379-3.609-1.356-5.553s3.288-2.61 5.06-1.488Zm17.396 15.715c1.023-1.944.416-4.43-1.356-5.552-1.772-1.123-4.037-.457-5.06 1.487-1.023 1.944-.416 4.43 1.356 5.553 1.772 1.122 4.037.456 5.06-1.488Z" clip-rule="evenodd"/></svg>
